mimes/16/text-x-script.svg

<?xml version="1.0" encoding="UTF-8" standalone="no"?>
<svg
   xmlns:dc="http://purl.org/dc/elements/1.1/"
   xmlns:cc="http://creativecommons.org/ns#"
   xmlns:rdf="http://www.w3.org/1999/02/22-rdf-syntax-ns#"
   xmlns:svg="http://www.w3.org/2000/svg"
   xmlns="http://www.w3.org/2000/svg"
   xmlns:xlink="http://www.w3.org/1999/xlink"
   version="1.1"
   width="16"
   height="16"
   id="svg3063">
  <defs
     id="defs3065">
    <linearGradient
       x1="22.104254"
       y1="40.124432"
       x2="22.104254"
       y2="10.035408"
       id="linearGradient2580-0"
       xlink:href="#linearGradient5031-4"
       gradientUnits="userSpaceOnUse"
       gradientTransform="matrix(0.6655579,0,0,1.4407893,-1.8234977,-35.848874)" />
    <linearGradient
       id="linearGradient5031-4">
      <stop
         id="stop5033-8"
         style="stop-color:#a3a3a3;stop-opacity:1"
         offset="0" />
      <stop
         id="stop5035-8"
         style="stop-color:#bababa;stop-opacity:1"
         offset="1" />
    </linearGradient>
    <linearGradient
       x1="-51.786404"
       y1="50.786446"
       x2="-51.786404"
       y2="2.9062471"
       id="linearGradient3019"
       xlink:href="#linearGradient3104-9"
       gradientUnits="userSpaceOnUse"
       gradientTransform="matrix(0.25378586,0,0,0.30501865,19.128979,-0.68547704)" />
    <linearGradient
       id="linearGradient3104-9">
      <stop
         id="stop3106-5"
         style="stop-color:#000000;stop-opacity:0.33950618"
         offset="0" />
      <stop
         id="stop3108-5"
         style="stop-color:#000000;stop-opacity:0.24691358"
         offset="1" />
    </linearGradient>
    <linearGradient
       x1="23.99999"
       y1="6.2052388"
       x2="23.99999"
       y2="41.589603"
       id="linearGradient3988"
       xlink:href="#linearGradient3977"
       gradientUnits="userSpaceOnUse"
       gradientTransform="matrix(0.24324324,0,0,0.35135133,2.1621636,-0.43242804)" />
    <linearGradient
       id="linearGradient3977">
      <stop
         id="stop3979"
         style="stop-color:#ffffff;stop-opacity:1"
         offset="0" />
      <stop
         id="stop3981"
         style="stop-color:#ffffff;stop-opacity:0.23529412"
         offset="0.02929282" />
      <stop
         id="stop3983"
         style="stop-color:#ffffff;stop-opacity:0.15686275"
         offset="0.97230476" />
      <stop
         id="stop3985"
         style="stop-color:#ffffff;stop-opacity:0.39215687"
         offset="1" />
    </linearGradient>
    <linearGradient
       id="linearGradient3600">
      <stop
         id="stop3602"
         style="stop-color:#f4f4f4;stop-opacity:1"
         offset="0" />
      <stop
         id="stop3604"
         style="stop-color:#dbdbdb;stop-opacity:1"
         offset="1" />
    </linearGradient>
    <linearGradient
       x1="25.132275"
       y1="0.98520643"
       x2="25.132275"
       y2="47.013336"
       id="linearGradient3061"
       xlink:href="#linearGradient3600"
       gradientUnits="userSpaceOnUse"
       gradientTransform="matrix(0.28571361,0,0,0.30419701,1.1428727,0.2326048)" />
  </defs>
  <metadata
     id="metadata3068">
    <rdf:RDF>
      <cc:Work
         rdf:about="">
        <dc:format>image/svg+xml</dc:format>
        <dc:type
           rdf:resource="http://purl.org/dc/dcmitype/StillImage" />
        <dc:title />
      </cc:Work>
    </rdf:RDF>
  </metadata>
  <g
     id="layer1">
    <path
       d="m 3,1 c 2.2915074,0 9.999988,8.904e-4 9.999988,8.904e-4 L 13,15 C 13,15 6.3333332,15 3,15 3,10.333334 3,5.6666664 3,1 z"
       id="path4160"
       style="fill:url(#linearGradient3061);fill-opacity:1;stroke:none;display:inline" />
    <path
       d="m 12.5,14.5 -9.0000001,0 0,-13 L 12.5,1.5 z"
       id="rect6741-1"
       style="fill:none;stroke:url(#linearGradient3988);stroke-width:1;stroke-linecap:round;stroke-linejoin:miter;stroke-miterlimit:4;stroke-opacity:1;stroke-dasharray:none;stroke-dashoffset:0" />
    <path
       d="m 2.4999621,0.49997396 c 2.5206756,0 11.0000629,9.54e-4 11.0000629,9.54e-4 l 1.3e-5,14.99909804 c 0,0 -7.3333841,0 -11.000076,0 0,-5.000017 0,-10.000035 0,-15.00005204 z"
       id="path4160-8"
       style="fill:none;stroke:url(#linearGradient3019);stroke-width:0.99992192;stroke-linecap:butt;stroke-linejoin:round;stroke-miterlimit:4;stroke-opacity:1;stroke-dasharray:none;stroke-dashoffset:0;display:inline" />
    <path
       d="m 4,7 0,1 3.0625,0 0,-1 L 4,7 z"
       id="path3027"
       style="fill:#b78ed4;fill-opacity:1;stroke:none;display:inline" />
    <path
       d="M 8,7 8,8 12,8 12,7 8,7 z"
       id="path3023"
       style="fill:#d48eb3;fill-opacity:1;stroke:none;display:inline" />
    <path
       d="m 10,5 0,1 1.90625,0 0,-1 L 10,5 z m -3,0 0,1 2.15625,0 0,-1 L 7,5 z m -3,0 0,1 2.3125,0 0,-1 L 4,5 z M 7,3 7,4 9,4 9,3 7,3 z M 4,3 4,4 6,4 6,3 4,3 z"
       id="path2940"
       style="fill:#89adc2;fill-opacity:1;stroke:none;display:inline" />
    <path
       d="M 4,9 4,10 6,10 6,9 4,9 z"
       id="path3066"
       style="fill:#94d48e;fill-opacity:1;stroke:none;display:inline" />
    <path
       d="m 4,13 3.036746,0 0,1 L 4,14 4,13 z"
       id="path4009"
       style="fill:#de6161;fill-opacity:1;stroke:none;display:inline" />
    <path
       d="m 8,13 0,1 3.34375,0 0,-1 L 8,13 z m -4,-2 0,1 2,0 0,-1 -2,0 z M 7,9 7,10 9,10 9,9 7,9 z"
       id="path4007"
       style="fill:url(#linearGradient2580-0);fill-opacity:1;stroke:none;display:inline" />
  </g>
</svg>

<svg xmlns="http://www.w3.org/2000/svg" xmlns:xlink="http://www.w3.org/1999/xlink" viewBox="0 0 16 16"><defs><linearGradient x1="22.104" y1="40.124" x2="22.104" y2="10.035" id="h" xlink:href="#a" gradientUnits="userSpaceOnUse" gradientTransform="matrix(.66556 0 0 1.4408 -1.823 -35.85)"/><linearGradient id="a"><stop offset="0" stop-color="#a3a3a3"/><stop offset="1" stop-color="#bababa"/></linearGradient><linearGradient x1="-51.786" y1="50.786" x2="-51.786" y2="2.906" id="g" xlink:href="#b" gradientUnits="userSpaceOnUse" gradientTransform="matrix(.2538 0 0 .30502 19.13 -.685)"/><linearGradient id="b"><stop offset="0" stop-opacity=".34"/><stop offset="1" stop-opacity=".247"/></linearGradient><linearGradient x1="24" y1="6.205" x2="24" y2="41.59" id="f" xlink:href="#c" gradientUnits="userSpaceOnUse" gradientTransform="matrix(.24324 0 0 .35135 2.162 -.432)"/><linearGradient id="c"><stop offset="0" stop-color="#fff"/><stop offset=".029" stop-color="#fff" stop-opacity=".235"/><stop offset=".972" stop-color="#fff" stop-opacity=".157"/><stop offset="1" stop-color="#fff" stop-opacity=".392"/></linearGradient><linearGradient id="d"><stop offset="0" stop-color="#f4f4f4"/><stop offset="1" stop-color="#dbdbdb"/></linearGradient><linearGradient x1="25.132" y1=".985" x2="25.132" y2="47.013" id="e" xlink:href="#d" gradientUnits="userSpaceOnUse" gradientTransform="matrix(.2857 0 0 .3042 1.143 .233)"/></defs><path d="M3 1h10v14H3V1z" fill="url(#e)"/><path d="M12.5 14.5h-9v-13h9z" fill="none" stroke="url(#f)" stroke-linecap="round"/><path d="M2.5.5h11v15h-11V.5z" fill="none" stroke="url(#g)" stroke-linejoin="round"/><path d="M4 7v1h3.063V7H4z" fill="#b78ed4"/><path d="M8 7v1h4V7H8z" fill="#d48eb3"/><path d="M10 5v1h1.906V5H10zM7 5v1h2.156V5H7zM4 5v1h2.313V5H4zm3-2v1h2V3H7zM4 3v1h2V3H4z" fill="#89adc2"/><path d="M4 9v1h2V9H4z" fill="#94d48e"/><path d="M4 13h3.037v1H4v-1z" fill="#de6161"/><path d="M8 13v1h3.344v-1H8zm-4-2v1h2v-1H4zm3-2v1h2V9H7z" fill="url(#h)"/></svg>
